icons/speech-bubble-plus-32.svg

<svg xmlns="http://www.w3.org/2000/svg" viewBox="0 0 32 32"><title>speech-bubble-plus-32</title><g id="icons"><path d="M8,12H24v1H8Zm0,4H20V15H8ZM29,9V19a3.00079,3.00079,0,0,1-3.00049,3H14.66016L7,27.47168V22H6a3.00328,3.00328,0,0,1-3-3V9A3.00328,3.00328,0,0,1,6,6H26A3.00328,3.00328,0,0,1,29,9ZM28,9a2.00229,2.00229,0,0,0-2-2H6A2.00229,2.00229,0,0,0,4,9V19a2.00229,2.00229,0,0,0,2,2H8v4.52832L14.33984,21H25.99951A2.00052,2.00052,0,0,0,28,19Z"/></g></svg>

<svg xmlns="http://www.w3.org/2000/svg" viewBox="0 0 32 32"><path d="M8 12h16v1H8zm0 4h12v-1H8zm21-7v10a3 3 0 01-3 3H14.66L7 27.472V22H6a3.003 3.003 0 01-3-3V9a3.003 3.003 0 013-3h20a3.003 3.003 0 013 3zm-1 0a2.002 2.002 0 00-2-2H6a2.002 2.002 0 00-2 2v10a2.002 2.002 0 002 2h2v4.528L14.34 21H26a2 2 0 002-2z"/></svg>
